assets/icons/svg/pdf.svg

<svg width="16" height="16" viewBox="0 0 16 16" xmlns="http://www.w3.org/2000/svg">
<path d="M9.25342 2H4.5625C4.1481 2 3.75067 2.16462 3.45765 2.45765C3.16462 2.75067 3 3.1481 3 3.5625V12.9375C3 13.3519 3.16462 13.7493 3.45765 14.0424C3.75067 14.3354 4.1481 14.5 4.5625 14.5H11.4375C11.8519 14.5 12.2493 14.3354 12.5424 14.0424C12.8354 13.7493 13 13.3519 13 12.9375V5.75L9.25342 2ZM11.7961 5.4375H10.5C10.2514 5.43724 10.0131 5.33839 9.83737 5.16263C9.66161 4.98687 9.56276 4.74856 9.5625 4.5V3.19824L11.7961 5.4375ZM12.375 12.9375C12.3747 13.1861 12.2759 13.4244 12.1001 13.6001C11.9244 13.7759 11.6861 13.8748 11.4375 13.875H4.5625C4.31394 13.8748 4.07563 13.7759 3.89987 13.6001C3.72411 13.4244 3.62526 13.1861 3.625 12.9375V3.5625C3.62526 3.31394 3.72411 3.07563 3.89987 2.89987C4.07563 2.72411 4.31394 2.62526 4.5625 2.625H8.9375V4.5C8.9375 4.9144 9.10212 5.31183 9.39515 5.60486C9.68817 5.89788 10.0856 6.0625 10.5 6.0625H12.375V12.9375Z"/>
<path d="M10.1861 10.8767C10.1782 10.7981 10.1021 10.4063 9.4363 10.4238C8.96609 10.4355 8.75125 10.4612 8.66702 10.4749C8.56643 10.3665 8.21829 9.98071 8.06717 9.66748C8.10916 9.53638 8.27273 8.99976 8.26419 8.63672C8.25662 8.31079 8.19607 7.9375 7.793 7.9375H7.78616C7.66849 7.93872 7.57596 7.97632 7.51053 8.04907C7.40628 8.16553 7.37576 8.35742 7.40872 8.69043C7.44021 9.00781 7.57962 9.36572 7.61966 9.46509C7.58719 9.56568 7.4639 9.94165 7.30936 10.3115C7.16434 10.6594 7.05545 10.8767 7.01858 10.9463C6.8909 10.9922 6.38016 11.1853 6.13382 11.4202C5.90457 11.6387 5.69632 11.8984 5.88968 12.1668C5.95413 12.2561 6.07449 12.3103 6.21194 12.3115H6.21658C6.46414 12.3115 6.72708 12.1489 6.93875 11.8645C7.25809 11.4355 7.42972 11.1433 7.48025 11.0537C7.60232 11.0198 8.05447 10.8933 8.20804 10.8555C8.33938 10.823 8.49319 10.7952 8.56302 10.7822C8.68362 10.8982 9.15823 11.3193 9.63186 11.3035C9.85159 11.2952 10.0105 11.2373 10.1035 11.1311C10.1341 11.0965 10.1572 11.056 10.1716 11.0122C10.186 10.9683 10.1914 10.922 10.1873 10.876L10.1861 10.8767ZM6.2178 11.9829C6.20225 11.9885 6.18565 11.9905 6.16921 11.9888C6.15277 11.9871 6.13692 11.9818 6.12283 11.9731V11.9731C6.09573 11.9565 6.09329 11.9436 6.09842 11.9224C6.13382 11.7644 6.51883 11.4983 6.76126 11.3709C6.62088 11.6079 6.39676 11.9319 6.2178 11.9829ZM7.77176 8.20972C7.79861 8.20972 7.86184 8.20972 7.86453 8.448C7.86624 8.60767 7.80423 8.86694 7.75564 9.04395C7.70172 8.88001 7.67267 8.70892 7.66946 8.53638C7.66922 8.29663 7.73147 8.20972 7.77127 8.20972H7.77176ZM7.98611 10.6267C7.85403 10.6599 7.74856 10.6934 7.66873 10.7219L7.72488 10.593C7.80594 10.4072 7.88699 10.1836 7.93826 10.0364C8.05342 10.2164 8.18007 10.3888 8.31741 10.5525C8.24099 10.5669 8.13235 10.5903 7.98587 10.627L7.98611 10.6267ZM9.66262 10.9575C9.522 11.0171 9.20828 10.9268 8.94265 10.7222C9.22073 10.6863 9.58084 10.677 9.69802 10.7744C9.70858 10.7823 9.7171 10.7926 9.72288 10.8045C9.72865 10.8163 9.73152 10.8294 9.73123 10.8425C9.73123 10.9021 9.70901 10.9375 9.66262 10.9575Z"/>
</svg>

<svg xmlns="http://www.w3.org/2000/svg" width="16" height="16" viewBox="0 0 16 16">
  <path d="M9.253 2h-4.69A1.562 1.562 0 0 0 3 3.563v9.374A1.563 1.563 0 0 0 4.563 14.5h6.875A1.563 1.563 0 0 0 13 12.937V5.75L9.253 2Zm2.543 3.438H10.5a.938.938 0 0 1-.938-.938V3.198l2.234 2.24Zm.579 7.5a.938.938 0 0 1-.938.937H4.564a.938.938 0 0 1-.938-.938V3.563a.938.938 0 0 1 .938-.938h4.375V4.5A1.563 1.563 0 0 0 10.5 6.063h1.875v6.875Z"/>
  <path d="M10.186 10.877c-.008-.079-.084-.47-.75-.453a6.3 6.3 0 0 0-.769.05c-.1-.107-.449-.493-.6-.807.042-.13.206-.667.197-1.03-.007-.326-.068-.7-.471-.7h-.007a.358.358 0 0 0-.275.112c-.105.117-.135.308-.102.641.031.318.17.676.21.775-.032.1-.155.477-.31.847a8.303 8.303 0 0 1-.29.634c-.128.046-.639.24-.885.474-.23.219-.438.478-.244.747.064.09.184.143.322.145h.005c.247 0 .51-.163.722-.447.32-.43.49-.722.541-.811.122-.034.574-.16.728-.199.131-.032.285-.06.355-.073.12.116.595.537 1.069.521.22-.008.379-.066.472-.172a.34.34 0 0 0 .083-.255Zm-3.968 1.106a.11.11 0 0 1-.095-.01c-.027-.017-.03-.03-.025-.05.036-.159.42-.425.663-.552-.14.237-.364.56-.543.612ZM7.772 8.21c.027 0 .09 0 .093.238.001.16-.06.419-.11.596a1.727 1.727 0 0 1-.086-.508c0-.24.062-.326.102-.326Zm.214 2.417a3.437 3.437 0 0 0-.317.095l.056-.129c.08-.186.162-.41.213-.557.115.18.242.353.38.517a5.86 5.86 0 0 0-.332.074Zm1.677.33c-.141.06-.455-.03-.72-.235.278-.036.638-.045.755.052a.083.083 0 0 1 .033.069c0 .06-.022.095-.068.114Z"/>
</svg>
